icons/circle/48/distributor-logo-solus.svg

<svg xmlns="http://www.w3.org/2000/svg" viewBox="0 0 48 48">
 <defs>
  <linearGradient id="linearGradient3764" x1="1" x2="47" gradientUnits="userSpaceOnUse" gradientTransform="matrix(0,-1,1,0,-1.5e-6,47.999998)">
   <stop style="stop-color:#d3e1f1;stop-opacity:1"/>
   <stop offset="1" style="stop-color:#e2ebf6;stop-opacity:1"/>
  </linearGradient>
 </defs>
 <g>
  <path d="m 36.31 5 c 5.859 4.062 9.688 10.831 9.688 18.5 c 0 12.426 -10.07 22.5 -22.5 22.5 c -7.669 0 -14.438 -3.828 -18.5 -9.688 c 1.037 1.822 2.306 3.499 3.781 4.969 c 4.085 3.712 9.514 5.969 15.469 5.969 c 12.703 0 23 -10.298 23 -23 c 0 -5.954 -2.256 -11.384 -5.969 -15.469 c -1.469 -1.475 -3.147 -2.744 -4.969 -3.781 z m 4.969 3.781 c 3.854 4.113 6.219 9.637 6.219 15.719 c 0 12.703 -10.297 23 -23 23 c -6.081 0 -11.606 -2.364 -15.719 -6.219 c 4.16 4.144 9.883 6.719 16.219 6.719 c 12.703 0 23 -10.298 23 -23 c 0 -6.335 -2.575 -12.06 -6.719 -16.219 z" style="opacity:0.05"/>
  <path d="m 41.28 8.781 c 3.712 4.085 5.969 9.514 5.969 15.469 c 0 12.703 -10.297 23 -23 23 c -5.954 0 -11.384 -2.256 -15.469 -5.969 c 4.113 3.854 9.637 6.219 15.719 6.219 c 12.703 0 23 -10.298 23 -23 c 0 -6.081 -2.364 -11.606 -6.219 -15.719 z" style="opacity:0.1"/>
  <path d="m 31.25 2.375 c 8.615 3.154 14.75 11.417 14.75 21.13 c 0 12.426 -10.07 22.5 -22.5 22.5 c -9.708 0 -17.971 -6.135 -21.12 -14.75 a 23 23 0 0 0 44.875 -7 a 23 23 0 0 0 -16 -21.875 z" style="opacity:0.2"/>
 </g>
 <g>
  <path d="m 24 1 c 12.703 0 23 10.297 23 23 c 0 12.703 -10.297 23 -23 23 -12.703 0 -23 -10.297 -23 -23 0 -12.703 10.297 -23 23 -23 z" style="fill:url(#linearGradient3764);fill-opacity:1"/>
 </g>
 <path d="m 19.429 9.342 c -0.161 1.01 -0.349 2.108 -0.531 3.072 -4.671 2.269 -7.898 7.04 -7.898 12.586 c 0.002 1.195 0.167 2.375 0.467 3.518 -0.316 0.548 -0.617 1.084 -0.936 1.646 0.551 0.21 1.169 0.379 1.705 0.535 c 0.36 0.801 0.786 1.574 1.295 2.301 l 13.469 0 c 4 0 11.563 -2.687 13.279 -7.262 -0.414 -0.344 -0.899 -0.7 -1.293 -0.992 c -0.137 -7.614 -6.34 -13.746 -13.986 -13.746 c -1.413 0 -2.776 0.214 -4.063 0.604 l -1.508 -2.262 m 18.633 20.652 c -0.685 0.534 -1.431 1.017 -2.209 1.443 -3.042 1.668 -6.568 2.563 -8.854 2.563 l -12.705 0 c 2.656 3.165 6.574 4.994 10.705 5 5.799 -0.007 10.994 -3.588 13.06 -9.01 z" style="fill:#000;opacity:0.1;fill-opacity:1;stroke:none"/>
 <g>
  <path d="m 40.03 7.531 c 3.712 4.084 5.969 9.514 5.969 15.469 0 12.703 -10.297 23 -23 23 c -5.954 0 -11.384 -2.256 -15.469 -5.969 4.178 4.291 10.01 6.969 16.469 6.969 c 12.703 0 23 -10.298 23 -23 0 -6.462 -2.677 -12.291 -6.969 -16.469 z" style="opacity:0.1"/>
 </g>
 <path d="m 37.06 28.994 c -0.685 0.534 -1.431 1.017 -2.209 1.443 -3.042 1.668 -6.568 2.563 -8.854 2.563 l -12.705 0 c 2.656 3.165 6.574 4.994 10.705 5 5.799 -0.007 10.994 -3.588 13.06 -9.01" style="fill:#5294e2;fill-opacity:1;stroke:none"/>
 <path d="m 18.43 8.342 c -0.161 1.01 -0.349 2.108 -0.531 3.072 -4.671 2.269 -7.898 7.04 -7.898 12.586 c 0.002 1.195 0.167 2.375 0.467 3.518 -0.316 0.548 -0.617 1.084 -0.936 1.646 0.551 0.21 1.169 0.379 1.705 0.535 c 0.36 0.801 0.786 1.574 1.295 2.301 l 13.469 0 c 4 0 11.563 -2.687 13.279 -7.262 -0.414 -0.344 -0.899 -0.7 -1.293 -0.992 c -0.137 -7.614 -6.34 -13.746 -13.986 -13.746 c -1.413 0 -2.776 0.214 -4.063 0.604 z" style="fill:#4c5263;fill-opacity:1;stroke:none"/>
 <path d="m 19 11 c -1 6 -5.424 13.05 -8 17.6 c 3 1 10 1.4 13 1.4 c -0.067 -0.877 -1 -13 -1 -13 l -4 -6 z m 5 6.5 c 2.555 4.475 2.491 9.5 1 12.5 c 2 0 6 0 8 -1 c 0 -4.531 -9 -11.5 -9 -11.5 z m 5 3.5 c 3 2 5 3.5 5 7.5 c 2 -1 3.348 -2.299 4 -3.5 c -2.522 -2 -5 -3 -9 -4 z" style="fill:#f9f9f9;fill-opacity:1;stroke:none;fill-rule:evenodd"/>
</svg>

<svg xmlns="http://www.w3.org/2000/svg" viewBox="0 0 48 48">
  <defs>
    <linearGradient id="a" x1="1" x2="47" gradientUnits="userSpaceOnUse" gradientTransform="rotate(-90 24 24)">
      <stop stop-color="#d3e1f1"/>
      <stop offset="1" stop-color="#e2ebf6"/>
    </linearGradient>
  </defs>
  <path d="M36.31 5c5.859 4.062 9.688 10.831 9.688 18.5 0 12.426-10.07 22.5-22.5 22.5-7.669 0-14.438-3.828-18.5-9.688a23.24 23.24 0 0 0 3.781 4.969 22.923 22.923 0 0 0 15.469 5.969c12.703 0 23-10.298 23-23a22.92 22.92 0 0 0-5.969-15.469A23.216 23.216 0 0 0 36.31 5zm4.969 3.781A22.911 22.911 0 0 1 47.498 24.5c0 12.703-10.297 23-23 23a22.909 22.909 0 0 1-15.719-6.219C12.939 45.425 18.662 48 24.998 48c12.703 0 23-10.298 23-23 0-6.335-2.575-12.06-6.719-16.219z" opacity=".05"/>
  <path d="M41.28 8.781a22.923 22.923 0 0 1 5.969 15.469c0 12.703-10.297 23-23 23A22.92 22.92 0 0 1 8.78 41.281 22.911 22.911 0 0 0 24.499 47.5c12.703 0 23-10.298 23-23A22.909 22.909 0 0 0 41.28 8.781z" opacity=".1"/>
  <path d="M31.25 2.375C39.865 5.529 46 13.792 46 23.505c0 12.426-10.07 22.5-22.5 22.5-9.708 0-17.971-6.135-21.12-14.75a23 23 0 0 0 44.875-7 23 23 0 0 0-16-21.875z" opacity=".2"/>
  <path d="M24 1c12.703 0 23 10.297 23 23S36.703 47 24 47 1 36.703 1 24 11.297 1 24 1z" fill="url(#a)"/>
  <path d="M19.429 9.342c-.161 1.01-.349 2.108-.531 3.072C14.227 14.683 11 19.454 11 25c.002 1.195.167 2.375.467 3.518-.316.548-.617 1.084-.936 1.646.551.21 1.169.379 1.705.535.36.801.786 1.574 1.295 2.301H27c4 0 11.563-2.687 13.279-7.262-.414-.344-.899-.7-1.293-.992C38.849 17.132 32.646 11 25 11c-1.413 0-2.776.214-4.063.604l-1.508-2.262m18.633 20.652a16.452 16.452 0 0 1-2.209 1.443C32.811 33.105 29.285 34 26.999 34H14.294a14 14 0 0 0 10.705 5 13.992 13.992 0 0 0 13.06-9.01z" opacity=".1"/>
  <path d="M40.03 7.531A22.922 22.922 0 0 1 45.999 23c0 12.703-10.297 23-23 23A22.92 22.92 0 0 1 7.53 40.031C11.708 44.322 17.54 47 23.999 47c12.703 0 23-10.298 23-23 0-6.462-2.677-12.291-6.969-16.469z" opacity=".1"/>
  <path d="M37.06 28.994a16.452 16.452 0 0 1-2.209 1.443C31.809 32.105 28.283 33 25.997 33H13.292a14 14 0 0 0 10.705 5 13.992 13.992 0 0 0 13.06-9.01" fill="#5294e2"/>
  <path d="M18.43 8.342c-.161 1.01-.349 2.108-.531 3.072-4.671 2.269-7.898 7.04-7.898 12.586.002 1.195.167 2.375.467 3.518-.316.548-.617 1.084-.936 1.646.551.21 1.169.379 1.705.535.36.801.786 1.574 1.295 2.301h13.469c4 0 11.563-2.687 13.279-7.262-.414-.344-.899-.7-1.293-.992C37.85 16.132 31.647 10 24.001 10c-1.413 0-2.776.214-4.063.604z" fill="#4c5263"/>
  <path d="M19 11c-1 6-5.424 13.05-8 17.6 3 1 10 1.4 13 1.4l-1-13-4-6zm5 6.5c2.555 4.475 2.491 9.5 1 12.5 2 0 6 0 8-1 0-4.531-9-11.5-9-11.5zm5 3.5c3 2 5 3.5 5 7.5 2-1 3.348-2.299 4-3.5-2.522-2-5-3-9-4z" fill="#f9f9f9" fill-rule="evenodd"/>
</svg>
